X:921
T:Dvanag An Seoladair #2
C:Joe Buchanan's Scottish Tome - Page 542.2
I:542 2
Z:Carl Allison
C:AKA My farewell
R:Waltz
L:1/4
M:3/4
K:G
"G"G2 G | "Em"G2 d | "C"e2 e | "G"d3 | "C"c B A | "G"B d2 | "A7"E2 E | "D7"D2 E |
"G"G2 A | "Em"G2 E | "D"D2 E | "G"G2 d | "C"e2 d | "Em"(d>e) B | "D7"A2 G | "G"G3 :|
